svgs/sova_five.svg

<svg width="24" height="24" viewBox="0 0 24 24" fill="none" xmlns="http://www.w3.org/2000/svg">
<path fill-rule="evenodd" clip-rule="evenodd" d="M6.56867 2.10419C6.61166 2.15025 6.73183 2.33176 6.83572 2.50759L7.02462 2.82724L7.04663 2.66196C7.07345 2.46088 7.22612 2.30481 7.3557 2.34607C7.48041 2.38582 7.59324 2.48153 7.69267 2.63192C7.81887 2.82279 8.03651 3.10001 8.13897 3.2004C8.18676 3.24723 8.30801 3.34151 8.40839 3.40995C8.50878 3.4784 8.69929 3.6202 8.83172 3.72511C9.10967 3.94522 9.58225 4.20156 9.77826 4.23857C9.86128 4.25427 10.0579 4.23362 10.2893 4.18489C10.4962 4.14131 10.7692 4.09475 10.896 4.08137C11.0228 4.06799 11.334 4.03106 11.5875 3.99932C11.9457 3.95446 12.0999 3.95102 12.279 3.98381C12.4058 4.00701 12.7429 4.05199 13.0282 4.08377C13.3134 4.11552 13.6592 4.16204 13.7966 4.18706C14.2242 4.26506 14.3581 4.2468 14.705 4.06339C14.8771 3.97236 15.1533 3.78706 15.3188 3.6516C15.4843 3.51614 15.646 3.40516 15.6781 3.40496C15.7375 3.40461 16.2321 2.83192 16.3692 2.60481C16.4104 2.53671 16.4958 2.45403 16.5591 2.42109C16.648 2.3748 16.695 2.37074 16.7657 2.40318C16.8808 2.45593 16.9852 2.63037 16.9852 2.76973C16.9852 2.85721 17.0199 2.81819 17.179 2.55179C17.4443 2.10755 17.5017 2.05175 17.6931 2.05245C17.7792 2.0528 17.8702 2.06618 17.8952 2.08226C18.0261 2.16602 18.0924 2.71769 18.0273 3.18083C17.9784 3.5289 17.8706 3.86332 17.6906 4.22608C17.6196 4.36912 17.5615 4.50048 17.5615 4.51799C17.5615 4.53555 17.6203 4.54298 17.6922 4.53451C17.7878 4.52329 17.8446 4.54096 17.9035 4.60028C18.0086 4.70605 18.01 4.954 17.9077 5.35651C17.8657 5.52194 17.8408 5.69576 17.8526 5.74278C17.8688 5.8079 17.8092 5.91045 17.602 6.17325C17.4525 6.36301 17.3204 6.55512 17.3085 6.60017C17.2944 6.65349 17.3494 6.80775 17.466 7.04123C18.0029 8.11745 18.3299 9.12302 18.3299 9.69847C18.3299 9.79147 18.3496 9.9463 18.3736 10.0425C18.4085 10.182 18.4039 10.3275 18.3507 10.7613C18.2646 11.4636 18.1127 11.9798 17.8856 12.342C17.8341 12.424 17.792 12.5135 17.792 12.5409C17.792 12.5682 17.8633 12.7122 17.9505 12.8607C18.3955 13.6194 18.6402 14.2304 18.9492 15.3543C18.9809 15.4694 18.9979 15.8424 18.9996 16.4564C19.002 17.3189 18.9958 17.4069 18.9119 17.7019C18.8137 18.0478 18.6945 18.2158 18.5475 18.2158C18.4685 18.2158 18.4474 18.2434 18.4091 18.3962C18.3406 18.6704 18.1108 19.2434 17.9328 19.584C17.8453 19.7516 17.7057 19.9664 17.6228 20.0613C17.4939 20.2087 17.4561 20.2306 17.3633 20.2119C17.266 20.1923 17.2462 20.207 17.1727 20.3533C17.0469 20.604 16.6718 21.1539 16.5738 21.2315C16.5257 21.2696 16.2831 21.3648 16.0347 21.4431C15.7863 21.5214 15.5311 21.6033 15.4677 21.6251C15.4043 21.6469 15.2747 21.6806 15.1796 21.7C15.0845 21.7194 14.9289 21.753 14.8338 21.7747C14.7388 21.7965 14.3374 21.8537 13.942 21.9019C13.401 21.968 12.9779 21.992 12.2324 21.999C10.7064 22.0135 9.30845 21.8629 8.51408 21.5983C8.40843 21.5632 8.13182 21.4734 7.89939 21.3988C7.6189 21.3088 7.44211 21.2287 7.37357 21.1606C7.26335 21.0511 6.81658 20.3699 6.77874 20.2537C6.76142 20.2004 6.73114 20.1896 6.64981 20.2076C6.56333 20.2267 6.5218 20.2076 6.42691 20.1055C6.17493 19.834 5.73174 18.9117 5.60327 18.3913C5.56047 18.2179 5.54337 18.1968 5.42608 18.1728C5.35467 18.1582 5.28129 18.1227 5.26296 18.094C5.09657 17.833 4.99803 17.2161 5.00003 16.4482C5.0016 15.8349 5.04878 15.5072 5.21536 14.9519C5.47499 14.0865 5.64987 13.6736 6.07861 12.9135C6.18203 12.7302 6.26663 12.5597 6.26663 12.5346C6.26663 12.5096 6.1994 12.3637 6.11726 12.2105C5.89006 11.7868 5.8022 11.4676 5.68783 10.65C5.65582 10.4211 5.65494 10.2623 5.68471 10.07C5.70727 9.92434 5.73712 9.69205 5.7511 9.5538C5.78933 9.17557 5.96117 8.53729 6.17796 7.96834C6.23063 7.8301 6.38673 7.48775 6.5248 7.20759C6.70575 6.84046 6.76929 6.67306 6.75227 6.60821C6.73925 6.55871 6.65757 6.43992 6.57075 6.34421C6.48392 6.24851 6.35837 6.09417 6.29172 6.00121C6.20063 5.87414 6.16943 5.78783 6.16598 5.65318C6.16344 5.55473 6.13317 5.37898 6.09874 5.2627C6.06428 5.14642 6.03612 4.96003 6.03612 4.84851C6.03612 4.68826 6.05426 4.62859 6.12256 4.56393C6.1911 4.49905 6.23897 4.48687 6.3538 4.505L6.49856 4.52789L6.34923 4.22762C6.26709 4.06246 6.15119 3.78814 6.09164 3.61799C6.00424 3.36819 5.98023 3.2238 5.96701 2.86803C5.95606 2.57349 5.96701 2.3748 6.00005 2.26865C6.02725 2.18134 6.06217 2.09495 6.07765 2.07673C6.11526 2.0325 6.34639 1.98474 6.4266 2.00465C6.46176 2.01335 6.52572 2.05817 6.56867 2.10419ZM7.48306 7.70732C7.63339 7.86154 7.77611 8.02669 7.80024 8.07437C7.82436 8.12202 7.8541 8.30473 7.86624 8.48041C7.89586 8.90755 8.00089 9.3183 8.16986 9.66769C8.36291 10.0669 8.75419 10.4579 9.15374 10.6509C9.53588 10.8356 10.0288 10.944 10.4905 10.9451C10.8311 10.9459 10.86 10.9523 10.9607 11.0494C11.0198 11.1064 11.0759 11.1451 11.0854 11.1356C11.0949 11.126 11.0624 10.9967 11.0132 10.8483C10.8705 10.4181 10.8101 10.207 10.7634 9.97461C10.7394 9.85508 10.696 9.72457 10.6669 9.68458C10.6157 9.61401 10.6112 9.61447 10.5211 9.69974C10.4699 9.74812 10.3692 9.80465 10.2973 9.82542C10.1095 9.87963 9.73815 9.87113 9.49927 9.80713C9.22873 9.73462 9.01924 9.59104 8.88935 9.38907C8.79438 9.24143 8.78193 9.1813 8.76426 8.78466L8.74459 8.34417L8.47566 8.15639C8.18872 7.95601 7.29327 7.42697 7.24106 7.42697C7.22385 7.42697 7.33277 7.55311 7.48306 7.70732ZM16.4282 7.72194C15.9197 8.02028 15.4508 8.33714 15.4456 8.38601C15.4441 8.40086 15.4396 8.58706 15.4357 8.79974C15.4299 9.11668 15.4132 9.21567 15.3429 9.34854C15.2347 9.55307 15.0608 9.68729 14.7761 9.78586C14.408 9.91332 13.8466 9.87101 13.6969 9.7045C13.6606 9.66417 13.6168 9.63114 13.5995 9.63114C13.5514 9.63114 13.4642 9.82554 13.4346 9.99851C13.42 10.0836 13.3394 10.3687 13.2554 10.6322C13.1714 10.8956 13.1088 11.1173 13.1162 11.1248C13.1237 11.1322 13.188 11.0951 13.2593 11.0421C13.3725 10.9581 13.4286 10.9459 13.7037 10.9459C14.1371 10.9459 14.7124 10.8201 15.0524 10.651C15.3897 10.4833 15.7674 10.1427 15.9435 9.8475C16.015 9.72766 16.1246 9.47766 16.1869 9.29201C16.2703 9.04371 16.3084 8.83822 16.3309 8.51513L16.3614 8.07584L16.6821 7.7514C16.8585 7.57294 16.9859 7.42743 16.9652 7.42797C16.9445 7.42851 16.7029 7.5608 16.4282 7.72194ZM11.512 12.3338C11.4954 12.3864 11.5702 12.5407 11.7609 12.8472C11.9108 13.0882 12.0495 13.3016 12.0689 13.3212C12.0906 13.3432 12.1323 13.3316 12.1765 13.2913C12.2898 13.1881 12.7268 12.4173 12.713 12.345C12.7022 12.2881 12.628 12.2787 12.1182 12.2693C11.5702 12.2593 11.5343 12.2632 11.512 12.3338ZM10.7666 13.9555C10.7223 14.0426 10.6831 14.209 10.6465 14.4649C10.6099 14.7204 10.7016 15.311 10.7887 15.3806C10.8201 15.4057 10.8744 15.4165 10.9093 15.4046C10.9442 15.3926 11.1845 15.2809 11.4432 15.1564C11.7018 15.0318 11.9829 14.9187 12.0677 14.9051C12.196 14.8844 12.2485 14.898 12.3803 14.9858C12.5837 15.1212 13.3457 15.4337 13.3837 15.3973C13.4373 15.3458 13.5324 14.9112 13.5327 14.7162C13.5331 14.4501 13.4182 13.962 13.3489 13.9352C13.318 13.9233 13.146 13.9626 12.9667 14.0226C12.756 14.0931 12.5842 14.1803 12.4808 14.2692C12.3329 14.3966 12.3041 14.4062 12.0953 14.3981C11.9172 14.3912 11.845 14.3685 11.7528 14.2903C11.5906 14.153 11.482 14.1015 11.1166 13.9888C10.8258 13.899 10.7967 13.8963 10.7666 13.9555Z" fill="white"/>
</svg>

<svg xmlns="http://www.w3.org/2000/svg" viewBox="0 0 24 24"><path d="M6.57 2.104c.042.046.162.228.266.404l.19.32.021-.166c.026-.201.18-.357.31-.316.123.04.236.136.336.286.126.19.344.468.446.568.048.047.17.142.27.21s.29.21.423.315c.278.22.75.477.946.514.083.015.28-.005.511-.054.207-.044.48-.09.607-.104.127-.013.438-.05.691-.082.36-.045.513-.048.692-.015.127.023.464.068.75.1.284.032.63.078.768.103.427.078.561.06.908-.124.172-.09.448-.276.614-.411.165-.136.327-.247.36-.247.06 0 .553-.573.69-.8a.58.58 0 0 1 .19-.184c.09-.046.136-.05.207-.018.115.053.22.227.22.367 0 .087.034.048.193-.218.265-.444.323-.5.514-.5a.54.54 0 0 1 .202.03c.131.084.197.636.132 1.099a3.36 3.36 0 0 1-.336 1.045c-.07.143-.13.274-.13.292s.06.025.131.017c.096-.012.153.006.212.065.105.106.106.354.004.757-.042.165-.067.339-.055.386.016.065-.044.167-.25.43-.15.19-.283.382-.295.427-.014.053.041.208.158.44.537 1.077.864 2.083.864 2.658 0 .093.02.248.044.345.035.139.03.285-.023.718-.086.703-.238 1.219-.465 1.58a.654.654 0 0 0-.094.2c0 .027.071.17.16.32.443.758.69 1.37.997 2.493.032.115.05.488.05 1.102.003.863-.003.95-.087 1.246-.098.346-.217.514-.364.514-.08 0-.1.027-.139.18-.068.274-.298.847-.476 1.188a3.007 3.007 0 0 1-.31.477c-.13.148-.167.17-.26.15-.097-.02-.117-.004-.19.142-.126.25-.5.8-.6.878-.047.039-.29.134-.538.212-.249.078-.504.16-.567.182a2.853 2.853 0 0 1-.288.075c-.095.02-.25.053-.346.075s-.497.079-.892.127c-.54.066-.964.09-1.71.097-1.526.015-2.924-.136-3.718-.4a86.76 86.76 0 0 0-.615-.2c-.28-.09-.457-.17-.525-.238-.11-.11-.557-.791-.595-.907-.018-.054-.048-.064-.13-.046-.086.019-.127 0-.222-.102-.252-.272-.695-1.194-.824-1.715-.043-.173-.06-.194-.177-.218-.07-.015-.145-.05-.163-.08-.166-.26-.265-.877-.263-1.645.002-.613.05-.94.215-1.496.26-.866.435-1.278.864-2.038.103-.184.188-.354.188-.38 0-.024-.068-.17-.15-.324-.227-.423-.315-.742-.43-1.56a1.828 1.828 0 0 1-.002-.58c.022-.146.052-.378.066-.516.038-.378.21-1.017.427-1.586.053-.138.21-.48.347-.76.18-.368.244-.535.227-.6a.96.96 0 0 0-.18-.264A4.68 4.68 0 0 1 6.291 6a.552.552 0 0 1-.126-.348 1.844 1.844 0 0 0-.067-.39 1.759 1.759 0 0 1-.063-.414c0-.16.018-.22.087-.285.068-.065.116-.077.23-.06l.146.024-.15-.3a6.421 6.421 0 0 1-.257-.61c-.088-.25-.112-.394-.125-.75-.01-.295 0-.493.033-.6a.895.895 0 0 1 .078-.191c.037-.044.268-.092.35-.072a.368.368 0 0 1 .141.1m.914 5.603c.15.155.293.32.317.367.024.048.054.23.066.406.03.428.135.838.304 1.188.193.399.584.79.984.983.382.185.875.293 1.337.294.34 0 .37.007.47.104.06.057.115.096.124.087.01-.01-.023-.14-.072-.288a7.034 7.034 0 0 1-.25-.873 1.012 1.012 0 0 0-.096-.29c-.05-.071-.056-.07-.146.015a.648.648 0 0 1-.224.125c-.187.055-.559.046-.798-.018a1.011 1.011 0 0 1-.61-.418c-.095-.148-.107-.208-.125-.604l-.02-.44-.268-.19c-.287-.2-1.183-.728-1.235-.728-.017 0 .092.126.242.28m8.945.015c-.508.298-.977.615-.982.664-.002.015-.006.2-.01.414-.006.317-.023.416-.093.549-.108.204-.282.338-.567.437-.368.127-.93.085-1.08-.082-.035-.04-.08-.073-.096-.073-.049 0-.136.195-.165.368-.015.085-.096.37-.18.633-.084.264-.146.485-.139.493.008.007.072-.03.143-.083.114-.084.17-.096.445-.096.433 0 1.008-.126 1.348-.295.338-.168.715-.508.892-.803.071-.12.18-.37.243-.556.083-.248.121-.454.144-.777l.03-.44.321-.324c.177-.178.304-.324.283-.323-.02 0-.262.133-.537.294m-4.916 4.612c-.017.052.058.207.25.513.15.24.288.455.307.474.022.022.063.01.107-.03.114-.103.55-.874.537-.946-.01-.057-.085-.066-.595-.076-.548-.01-.584-.006-.606.065m-.745 1.622c-.045.087-.084.253-.12.509-.037.255.055.846.142.916a.143.143 0 0 0 .12.024c.035-.012.275-.124.534-.25.26-.123.54-.236.625-.25.128-.021.18-.007.312.08.204.136.966.449 1.004.412.053-.051.148-.486.15-.68 0-.267-.116-.755-.185-.782-.03-.012-.203.028-.382.088-.21.07-.383.157-.486.246-.148.128-.177.137-.386.13-.178-.008-.25-.03-.342-.11-.162-.136-.27-.187-.636-.3-.29-.09-.32-.093-.35-.034"/></svg>
